X: 27404
T: Moghrey Laa Boaldyn
R: reel
M: 4/4
K: Bminor
EG|B3c dc BA|FE DE F2A2|F2E2E2E2|E6EG|
B2B2d2e2|f2fde2c2|d2B2c2ec|B6EG|
B2B2d2e2|f2fde2c2|d2B2cd ec|B6EG|
B3c dc BA|F2DEF2A2|FGE2E2E2|E6||

